X: 21238
T: Keel Row, The
R: strathspey
M: 4/4
K: Gmajor
|:c|B2 G>B c2 A>c|B2 G>B AF D>c|
B2 G>B c2 A>c|B<G A<F G3:|
|:d|B<d d>g e2 d>c|B2 G>B AF D>c|
B<d d>g e2 d>c|B<G A<F G3:|
|:"Variation 1" d/c/|Bd GA/B/ ce E>G|FA DE/F/ G/A/B/c/ d/e/f/g/|
Bd GA/B/ ce E>G|FA DE/F/ G3:|
d|Bd g>f ed cB|cB AG FA A>d|Bd gf ed cB|ce dF G3 d|
Bd g>f ed cB|c/d/B/c/ A/B/G/A/ FA A>c|
Bd ^ce df eg|fb a>^c d3||
|:"Variation 2" c|(3Bdg (3GBd (3cea (3ABc|(3Bdg (3GBd (3FAd D>d|
(3Bdg (3GBd (3cea (3ABc|(3Bed (3cBA G3:|
|:d|(3BGB (3 dBd (3gdc (3BAG|(3FDF (3AFA (3dAG (3FED|
[1 (3BGB (3dBd (3gdc (3BAG|(3Fed (3cBA G3:|
[2 (3EFG (3FGA (3GAB (3ABc|(3Bcd (3^cde d3||
|:"Variation 3" c|B/G/B/d/ g2 c/A/c/e/ a2|B/G/B/d/ g/d/B/d/ c/A/F/A/ D/F/A/c/|
B/G/B/d/ g/d/B/d/ c/A/c/e/ a/g/f/e/|d/g/d/B/ A/e/d/F/ G3:|
|:c|Bd de/f/ g/f/g/a/ b>B|cA/B/ c/B/A/G/ F/G/A/B/ A>c|
[1 B/G/A/B/ c/d/e/f/ g/f/e/d/ c/B/A/G/|Fe dF G3:|
[2 Bd ^ce df eg|fb g^c d3||
"to finish" ^c/=c/|B2 GB c2 A>c|B2 G>B AF Dc|
B2 G>B c2 A>c|B<G A<F G3||

